timer-plus-outline.svg

<svg fill="currentColor" viewBox="0 0 24 24"><path d="M11 8h2v6h-2zm4-7H9v2h6zm-3 19c-3.87 0-7-3.13-7-7s3.13-7 7-7 7 3.13 7 7c.7 0 1.36.13 2 .35V13c0-2.12-.74-4.07-1.97-5.61l1.42-1.42c-.45-.51-.9-.97-1.41-1.41L17.62 6c-1.55-1.26-3.5-2-5.62-2a9 9 0 0 0 0 18c.59 0 1.16-.06 1.71-.17-.31-.58-.53-1.23-.63-1.92-.36.05-.71.09-1.08.09m8-2v-3h-2v3h-3v2h3v3h2v-3h3v-2z"/></svg>

<svg  viewBox="0 0 24 24" fill="currentColor"><path  d="M11 8H13V14H11V8M15 1H9V3H15V1M12 20C8.13 20 5 16.87 5 13S8.13 6 12 6 19 9.13 19 13C19.7 13 20.36 13.13 21 13.35C21 13.23 21 13.12 21 13C21 10.88 20.26 8.93 19.03 7.39L20.45 5.97C20 5.46 19.55 5 19.04 4.56L17.62 6C16.07 4.74 14.12 4 12 4C7.03 4 3 8.03 3 13S7.03 22 12 22C12.59 22 13.16 21.94 13.71 21.83C13.4 21.25 13.18 20.6 13.08 19.91C12.72 19.96 12.37 20 12 20M20 18V15H18V18H15V20H18V23H20V20H23V18H20Z"/></svg>
